img/icons/app_active.svg

<svg height="14" viewBox="0 0 14 14" width="14" xmlns="http://www.w3.org/2000/svg"><path d="m7 2c1.87116425 0 3.4422446 1.2848121 3.8791657 3.02036107 1.7542522.18851543 3.1208343 1.674486 3.1208343 3.47963893 0 1.7629068-1.3033661 3.2213961-2.9990501 3.4644196l-.0009499.0355804h-7c-2.209139 0-4-1.790861-4-4 0-2.04641454 1.53674929-3.73390206 3.5191836-3.97139829.68699185-1.21134466 1.98846382-2.02860171 3.4808164-2.02860171zm1.84877393 3.57471429-2.82842713 2.82842713-1.41421356-1.41421357-.70710678.70710678 2.12132034 2.12132035 3.53553391-3.53553391z" fill="#858585" fill-rule="evenodd"/></svg>

<?xml version="1.0" encoding="UTF-8"?>
<svg width="14px" height="14px" viewBox="0 0 14 14" version="1.1" xmlns="http://www.w3.org/2000/svg" xmlns:xlink="http://www.w3.org/1999/xlink">
    <title>app_inactive</title>
    <g id="Icon" stroke="none" stroke-width="1" fill="none" fill-rule="evenodd">
        <g id="Visual-Studio" transform="translate(-83.000000, -182.000000)" fill="#858585">
            <g id="app_inactive" transform="translate(83.000000, 182.000000)">
                <path d="M7,2 C8.87116425,2 10.4422446,3.2848121 10.8791657,5.02036107 C12.6334179,5.2088765 14,6.69484707 14,8.5 C14,10.2629068 12.6966339,11.7213961 11.0009499,11.9644196 L11,12 L4,12 C1.790861,12 0,10.209139 0,8 C0,5.95358546 1.53674929,4.26609794 3.5191836,4.02860171 C4.20617545,2.81725705 5.50764742,2 7,2 Z M8.84877393,5.57471429 L6.0203468,8.40314142 L4.60613324,6.98892785 L3.89902646,7.69603463 L6.0203468,9.81735498 L9.55588071,6.28182107 L8.84877393,5.57471429 Z" id="形状结合"></path>
            </g>
        </g>
    </g>
</svg>
